build/img/sprite_auto.svg

<svg xmlns="http://www.w3.org/2000/svg" xmlns:xlink="http://www.w3.org/1999/xlink"><symbol id="icon-arrow" viewBox="0 0 26 26">
<path fill-rule="evenodd" clip-rule="evenodd" d="M10 9.4L14.6 14L10 18.6L11.4 20L17.4 14L11.4 8L10 9.4Z"/>
</symbol><symbol id="icon-email" viewBox="0 0 26 26">
<path d="M24.2273 3H1.77273C0.768182 3 0 3.76471 0 4.76471V21.2353C0 22.2353 0.768182 23 1.77273 23H24.2273C25.2318 23 26 22.2353 26 21.2353V4.76471C26 3.76471 25.2318 3 24.2273 3ZM24.2273 20L19.5591 15.3529C19.2045 15 18.6727 15 18.3182 15.3529C17.9636 15.7059 17.9636 16.2353 18.3182 16.5882L22.9864 21.2353H3.01362L7.68182 16.5882C8.03636 16.2353 8.03636 15.7059 7.68182 15.3529C7.32727 15 6.79547 15 6.44092 15.3529L1.77273 20V8.70585L12.4091 16.7059C12.5864 16.8236 12.7636 16.8823 12.9409 16.8823C13.1182 16.8823 13.2954 16.8236 13.4727 16.7059L24.2273 8.70585V20ZM24.2273 4.76471V6.4706L12.9409 14.8235L1.77273 6.4706V4.76471H24.2273Z"/>
</symbol><symbol id="icon-phone" viewBox="0 0 26 26">
<path d="M5.45616 7.74199C5.37161 6.54391 5.63734 5.36374 6.34096 4.41452C6.95096 3.554 7.74517 3.08404 8.70245 2.8094C9.50874 2.57018 10.0372 2.86329 10.2697 3.75972C10.6019 5.09991 11.076 6.44018 11.2482 7.85129C11.3025 8.47252 10.9009 9.35089 10.466 9.80328C9.37589 10.8766 9.60238 11.6576 10.4298 13.282C10.6865 13.8057 11.0942 14.7111 11.8884 15.9096C12.7158 17.1169 13.1537 17.7649 14.2167 17.2152C15.3974 16.6212 16.2581 17.0032 17.1489 17.9621C17.7529 18.6546 18.4172 19.2495 19.0212 19.942C19.8939 20.9718 19.8547 21.6818 19.1722 22.4091C17.9431 23.7486 15.9138 24.1913 14.4039 23.2943C13.5705 22.8058 12.74 22.1664 12.0787 21.4206C9.16453 18.1002 7.06272 14.2388 5.79741 9.88089C5.59508 9.14421 5.50146 8.39872 5.45616 7.74199Z" stroke="#0AD9C6" stroke-width="2"/>
</symbol><symbol id="icon-triangle" viewBox="0 0 26 26">
<path fill-rule="evenodd" clip-rule="evenodd" d="M10 4L23 13.1L10 22.2V4Z" fill="#070707"/>
</symbol></svg>

<svg xmlns="http://www.w3.org/2000/svg" xmlns:xlink="http://www.w3.org/1999/xlink"><symbol id="icon-arrow"><path fill-rule="evenodd" clip-rule="evenodd" d="M10 9.4l4.6 4.6-4.6 4.6 1.4 1.4 6-6-6-6L10 9.4z"/></symbol><symbol id="icon-email"><path d="M24.227 3H1.773C.768 3 0 3.765 0 4.765v16.47C0 22.235.768 23 1.773 23h22.454C25.232 23 26 22.235 26 21.235V4.765c0-1-.768-1.765-1.773-1.765zm0 17l-4.668-4.647a.86.86 0 00-1.24 0 .85.85 0 000 1.235l4.667 4.647H3.014l4.668-4.647a.85.85 0 000-1.235.86.86 0 00-1.241 0L1.773 20V8.706l10.636 8a.955.955 0 00.532.176.955.955 0 00.532-.176l10.754-8V20zm0-15.235V6.47l-11.286 8.352L1.773 6.471V4.765h22.454z"/></symbol><symbol id="icon-phone"><path d="M5.456 7.742c-.084-1.198.181-2.378.885-3.327.61-.861 1.404-1.331 2.361-1.606.807-.239 1.335.054 1.568.95.332 1.34.806 2.681.978 4.092.055.622-.347 1.5-.782 1.952-1.09 1.074-.864 1.855-.036 3.479.257.524.664 1.43 1.458 2.628.828 1.207 1.266 1.855 2.329 1.305 1.18-.594 2.041-.212 2.932.747.604.693 1.268 1.288 1.872 1.98.873 1.03.834 1.74.151 2.467-1.229 1.34-3.258 1.782-4.768.885-.834-.488-1.664-1.128-2.325-1.873-2.914-3.32-5.016-7.182-6.282-11.54a10.989 10.989 0 01-.34-2.139z"/></symbol><symbol id="icon-triangle"><path fill-rule="evenodd" clip-rule="evenodd" d="M10 4l13 9.1-13 9.1V4z" fill="#070707"/></symbol></svg>
